X:1
T:Pax Dei (Holmes), SM
T:Henry James Ernest Holmes, ca. 1902
T:Pax Dei (Holmes), SM
T:Public Domain
C:Henry James Ernest Holmes, ca. 1902
Z:Public Domain
%%score ( 1 2 ) ( 3 4 )
L:1/8
M:4/4
K:Eb
V:1 treble 
V:2 treble 
V:3 bass 
V:4 bass 
V:1
 [EG]2 | [EF]2 [EA]2 [EG]2 [DF]2 | E6 [B,F]2 | [B,G]2 [B,F]2 [B,G]2 [E=A]2 | (E4 D2) [FB]2 | %5
 [GB]2 [Be]2 [Ae]2 [Ad]2 | [Gd]2 [Gc]2 [FB]2 [FA]2 | [EG]2 [EF]2 [EG]2 [DF]2 | E8 |] %9
V:2
 x2 | x8 | E6 x2 | x8 | B6 x2 | x8 | x8 | x8 | E8 |] %9
V:3
 [E,B,]2 | [A,,C]2 [A,,C]2 [B,,B,]2 [=B,,A,]2 | [C,G,]6 [D,F,]2 | E,2 [D,F,]2 E,2 [C,F,]2 | %4
 [B,,F,]6 [A,D]2 | [G,E]2 [G,B,]2 [F,C]2 [F,D]2 | [E,E]2 [E,G,]2 [D,B,]2 [D,B,]2 | %7
 [E,B,]2 [C,=A,]2 [B,,B,]2 [B,,_A,]2 | [E,G,]8 |] %9
V:4
 x2 | x8 | x8 | E,2 E,2 x4 | x8 | x8 | x8 | x8 | x8 |] %9

